X:1
T:James Gibb editions
T:Scaramella - Compère
T:#
%%score [ 1 2 3 4 ]
L:1/8
Q:1/4=120
M:none
K:C
V:1 treble nm="Alto" snm="A"
V:2 treble-8 nm="Tenor I" snm="T I"
V:3 treble-8 nm="Tenor II" snm="T II"
V:4 bass nm="Bass" snm="B"
V:1
"^Loyset Compère\n(1445-1518)""^Scaramella" z8 z4 F2 G2 | A4 A2 A4 A2 (G3 F/E/) | %2
w: Sca- ra-|mel- la fa la gal\- * *|
 E4 z2 (A3 B c3 BAG | A2) (G4 ^F2) G8 | z4 G2 G2 F4 E2 (D2- | D2 E2) (F4 E4) (EDCB, | %6
w: la, la * * * * *|* gal\- * la|con la scar- pa'e la|* * sti\- * val\- * * *|
 A,2 F3 E D4 C2) D4- | D4 z4 z8 | (D3 E F2) G2 A4 (D4- | E8) z4 F4 | G3 G G4 z2 (F4 E2) | %11
w: * * * * * la,||la * * sti- val- la,|* la|com- be- rom, la *|
 (D4 E4) F4 E2 F2 | G3 G G4 F2 F2 E2 D2 | E4 (EDCB, A,2) (D4 C2 | F2 E2 D6 ^C B, C4) || %15
w: com\- * be- rom, la|com- be- rom be- rom- bet- ta,|be- rom\- * * * * bet\- *||
[M:6/4] D2 D2 C2 F4 F2 | F4 F2 E4 G2 | G4 E2 D2 A4 |[M:6/4] F4 E2 D2 C2 D2 | E3 E E2 A4 G2 | %20
w: ta, Sca- ra- mel- la|fa la gal- la|con la scar- pa'e|la- sti- val- la, la|com- be- rom be- rom-|
 (F4 E2 D2) C2 D2 | E3 E E2[Q:1/4=117] A4[Q:1/4=114] G2 | %22
w: bet\- * * ta, la|com- be- rom be- rom-|
[Q:1/4=112] (F2[Q:1/4=110] E3[Q:1/4=108] D[Q:1/4=105] D4[Q:1/4=102] ^C2) |[Q:1/4=102] D12 |] %24
w: bet\- * * * *|ta.|
V:2
 z8 z8 | z8 z8 | z4 c2 d2 e4 e2 e2- | e2 e2 (d3 c B4 d2 d2) | c6 B2 A3 B c2 (d2 | dc c4) B2 c8 | %6
w: ||Sca- ra- mel- la fa|* la gal\- * * * *|la, con la scar- pa'e la|* * * sti- val-|
 A8 z2 A4 (GF) | G4 A4 d2 d2 c4 | B2 A4 B2 c4 B4 | z4 z2 c2 d3 d d4 | (B2 c2) d4 (d4 c3 B | %11
w: la con la *|scar- pa'e la sti- val-|la, la sti- val- la,|la com- be- rom|be\- * rom- bet\- * *|
 A2 B2) c4 (A2 B2) c3 c | c4 B2 G2 (A2 B2 c2 d2 | c8) A4 z2 (A2- | AB) c2 (F2 G2) A8 || %15
w: * * ta, la * com- be-|rom be- rom- bet\- * * *|* ta, be\-|* * rom- bet\- * ta,|
[M:6/4] (A3 B) c2 d4 d2 | d4 c2 c4 c2 | c4 c2 A4 c2 |[M:6/4][K:treble-8] d2 B2 c2 A4 A2 | %19
w: Sca\- * ra- mel- la|fa la gal- la|con la scar- pa'e|la sti- val- la, la|
 c3 c c2 A4 c2 | (d4 c2) A4 A2 | c3 c c2 c4 c2 | (A2 A2 F2 G2 A4) | A12 |] %24
w: com- be- rom be- rom-|bet\- * ta, la|com- be- rom be- rom-|bet\- * * * *|ta.|
V:3
 z8 z8 | z8 F4 G4 | A8 A4 A4- | A4 A4 (G6 FE) | E8 z8 | z8 G4 G4 | F8 E4 D4- | D4 E4 F4 E4 | %8
w: |Sca- ra-|mel- la fa|* la gal\- * *|la,|con la|scar- pa'e la|* sti- val- la,|
 z8 F4 G4- | G2 G2 G4 F8 | E4 (D8 E4 | F4 E4 z8 | z8 F4 G4- | G2 G2 G4 F6 E2 | D2 C2 D4 F8) || %15
w: la com\-|* be- rom be-|rom- bet\- *|* ta,|la com\-|* be- rom be- rom-|bet\- * * *|
[M:6/4] D2 F2 G2 A4 A2 | A4 A2 (G3 F/E/) E2- | E2 G2 G2 F4 E2 |[M:6/4][K:treble-8] D4 E2 F2 E2 F2 | %19
w: ta, Sca- ra- mel- la|fa la gal\- * * la|* con la scar- pa'e|la sti- val- la, la|
 G3 G G2 F4 E2 | (D4 E2 F2) E2 F2 | G3 G G2 F4 E2 | (D2 C2 D4 E4) | D12 |] %24
w: com- be- rom be- rom-|bet\- * * ta, la|com- be- rom be- rom-|bet\- * * *|ta.|
V:4
 (F,2 G,2) A,4 A,2 A,4 G,2 | F,3 (E, D,2 A,4 G,F,) E,4 | z2 A,,4 D,2 C,2 A,,2 z2 (A,,2- | %3
w: Sca\- * ra- mel- la fa|la gal\- * * * * la,|fa la gal- la, fa|
 A,,B,,) C,2 D,4 G,,8 | z2 C,3 D, E,2 (F,2 E,D, C,2) G,2- | G,2 (F,E,) D,4 C,4 C,2 C,2 | %6
w: * * la gal- la,|con la scar- pa'e~~la * * * sti\-|* val\- * la, con la s~car-|
 D,2 D,2 D,2 (D,2 A,,4 _B,,4- | B,,4) A,,4 z4 (A,,4 | G,,2 D,4) (C,B,,) A,,4 G,,4 | %9
w: pa'e la sti- val\- * *|* la, la|* * sti\- * val- la,|
 C,4 E,3 E, D,8 | z4 G,,4 B,,3 B,, A,,4 | D,2 (D,2 C,2) (C,2 D,4) A,,4 | %12
w: la com- be- rom,|la com- be- rom|be- rom\- * bet\- * ta,|
 z2 C,2 E,3 E, D,4 C,2 (B,,2 | C,6) (C,2 D,4) A,,4 | z2 A,,2 _B,,2 B,,2 A,,8 || %15
w: la com- be- rom be- rom\-|* bet\- * ta,|be- rom- bet- ta,|
[M:6/4] D,4 E,2 D,4 D,2 | D,3 E, (F,2 C,4) C,2 | C,4 C,2 D,4 A,,2 |[M:6/4] D,4 C,2 D,2 A,,2 D,2 | %19
w: Sca- ra- mel- la|fa la gal\- * la,|con la scar- pa'e|la sti- val- la, la|
 C,3 C, C,2 D,4 E,2 | (F,4 C,2 D,2) A,,2 D,2 | C,3 C, C,2 F,,4 C,2 | (D,2 A,,2 _B,,4 A,,4) | %23
w: com- be- rom be- rom-|bet\- * * ta, la|com- be- rom be- rom-|bet\- * * *|
 D,12 |] %24
w: ta.|

